modules/feathericon/icons/book.svg

<?xml version="1.0" encoding="UTF-8"?>
<svg width="24px" height="24px" viewBox="0 0 24 24" version="1.1" xmlns="http://www.w3.org/2000/svg" xmlns:xlink="http://www.w3.org/1999/xlink">
    <!-- Generator: sketchtool 52.2 (67145) - http://www.bohemiancoding.com/sketch -->
    <title>book</title>
    <desc>Created with sketchtool.</desc>
    <g id="web-app" stroke="none" stroke-width="1" fill="none" fill-rule="evenodd">
        <g id="book" fill="#000000" fill-rule="nonzero">
            <path d="M13,16.0056677 L20,15.9589048 L20,5.99176953 L14.8295635,5.99886367 L13.0155542,7.8128729 L13,16.0056677 Z M11,7.8128729 L9.17880413,6.03818338 L4,6.00275313 L4,15.9589048 L11,16.0056513 L11,7.8128729 Z M10,4.04375471 L12,6 L14,4 L19.9972559,3.99177141 C21.1018243,3.99025588 21.9984826,4.88445696 21.9999981,5.98902542 L22,15.9589048 C22,17.0581347 21.1128866,17.9513379 20.0136825,17.958858 L14,18 L12.0040931,20 L10,18 L3.98631753,17.958858 C2.88711335,17.9513379 2,17.0581347 2,15.9589048 L2,6.00275313 C2,4.89818363 2.8954305,4.00275313 4,4.00275313 C4.00304058,4.00275313 6.00304058,4.01642032 10,4.04375471 Z" id="Shape"></path>
        </g>
    </g>
</svg>

<svg width="24" height="24" viewBox="0 0 24 24" xmlns="http://www.w3.org/2000/svg"><path d="M13 16.006l7-.047V5.992l-5.17.007-1.814 1.814L13 16.006zm-2-8.193L9.179 6.038 4 6.003v9.956l7 .047V7.813zm-1-3.77L12 6l2-2 5.997-.008A2 2 0 0 1 22 5.989v9.97a2 2 0 0 1-1.986 2L14 18l-1.996 2L10 18l-6.014-.041a2 2 0 0 1-1.986-2V6.003a2 2 0 0 1 2-2l6 .04z" fill="#000" fill-rule="nonzero"/></svg>
